assets/img/icons/duotone-icons/Cooking/Dinner.svg

<?xml version="1.0" encoding="UTF-8"?>
<svg width="24px" height="24px" viewBox="0 0 24 24" version="1.1" xmlns="http://www.w3.org/2000/svg" xmlns:xlink="http://www.w3.org/1999/xlink">
    <!-- Generator: Sketch 52.2 (67145) - http://www.bohemiancoding.com/sketch -->
    <title>Stockholm-icons / Cooking / Dinner</title>
    <desc>Created with Sketch.</desc>
    <g id="Stockholm-icons-/-Cooking-/-Dinner" stroke="none" stroke-width="1" fill="none" fill-rule="evenodd">
        <rect id="bound" x="0" y="0" width="24" height="24"></rect>
        <path d="M12.5,19 C8.91014913,19 6,16.0898509 6,12.5 C6,8.91014913 8.91014913,6 12.5,6 C16.0898509,6 19,8.91014913 19,12.5 C19,16.0898509 16.0898509,19 12.5,19 Z M12.5,16.4 C14.6539105,16.4 16.4,14.6539105 16.4,12.5 C16.4,10.3460895 14.6539105,8.6 12.5,8.6 C10.3460895,8.6 8.6,10.3460895 8.6,12.5 C8.6,14.6539105 10.3460895,16.4 12.5,16.4 Z M12.5,15.1 C11.0640597,15.1 9.9,13.9359403 9.9,12.5 C9.9,11.0640597 11.0640597,9.9 12.5,9.9 C13.9359403,9.9 15.1,11.0640597 15.1,12.5 C15.1,13.9359403 13.9359403,15.1 12.5,15.1 Z" id="Combined-Shape" fill="#335EEA" opacity="0.3"></path>
        <path d="M22,13.5 L22,13.5 C22.2864451,13.5 22.5288541,13.7115967 22.5675566,13.9954151 L23.0979976,17.8853161 C23.1712756,18.4226878 22.7950533,18.9177172 22.2576815,18.9909952 C22.2137086,18.9969915 22.1693798,19 22.125,19 L22.125,19 C21.5576012,19 21.0976335,18.5400324 21.0976335,17.9726335 C21.0976335,17.9415812 21.0990414,17.9105449 21.1018527,17.8796201 L21.4547321,13.9979466 C21.4803698,13.7159323 21.7168228,13.5 22,13.5 Z" id="Rectangle-Copy" fill="#335EEA" opacity="0.3"></path>
        <path d="M24,5 L24,12 L21,12 L21,8 C21,6.34314575 22.3431458,5 24,5 Z" id="Path-65" fill="#335EEA" transform="translate(22.500000, 8.500000) scale(-1, 1) translate(-22.500000, -8.500000) "></path>
        <path d="M0.714285714,5 L1.03696911,8.32873399 C1.05651593,8.5303749 1.22598532,8.68421053 1.42857143,8.68421053 C1.63115754,8.68421053 1.80062692,8.5303749 1.82017375,8.32873399 L2.14285714,5 L2.85714286,5 L3.17982625,8.32873399 C3.19937308,8.5303749 3.36884246,8.68421053 3.57142857,8.68421053 C3.77401468,8.68421053 3.94348407,8.5303749 3.96303089,8.32873399 L4.28571429,5 L5,5 L5,8.39473684 C5,9.77544872 3.88071187,10.8947368 2.5,10.8947368 C1.11928813,10.8947368 -7.19089982e-16,9.77544872 -8.8817842e-16,8.39473684 L0,5 L0.714285714,5 Z" id="Combined-Shape" fill="#335EEA"></path>
        <path d="M2.5,12.3684211 L2.5,12.3684211 C2.90055463,12.3684211 3.23115721,12.6816982 3.25269782,13.0816732 L3.51381042,17.9301218 C3.54396441,18.4900338 3.11451066,18.9683769 2.55459863,18.9985309 C2.53641556,18.9995101 2.51820943,19 2.5,19 L2.5,19 C1.93927659,19 1.48472045,18.5454439 1.48472045,17.9847204 C1.48472045,17.966511 1.48521034,17.9483049 1.48618958,17.9301218 L1.74730218,13.0816732 C1.76884279,12.6816982 2.09944537,12.3684211 2.5,12.3684211 Z" id="Rectangle" fill="#335EEA" opacity="0.3"></path>
    </g>
</svg>

<svg width="24" height="24" viewBox="0 0 24 24" xmlns="http://www.w3.org/2000/svg"><g fill="none" fill-rule="evenodd"><path d="M0 0h24v24H0z"/><path d="M12.5 19a6.5 6.5 0 110-13 6.5 6.5 0 010 13zm0-2.6a3.9 3.9 0 100-7.8 3.9 3.9 0 000 7.8zm0-1.3a2.6 2.6 0 110-5.2 2.6 2.6 0 010 5.2zM22 13.5c.286 0 .529.212.568.495l.53 3.89A.982.982 0 0122.125 19a1.027 1.027 0 01-1.023-1.12l.353-3.882A.548.548 0 0122 13.5z" fill="#335EEA" opacity=".3"/><path d="M21 5v7h3V8a3 3 0 00-3-3zM.714 5l.323 3.329a.393.393 0 00.783 0L2.143 5h.714l.323 3.329a.393.393 0 00.783 0L4.286 5H5v3.395a2.5 2.5 0 01-5 0V5h.714z" fill="#335EEA"/><path d="M2.5 12.368c.4 0 .731.314.753.714l.26 4.848A1.015 1.015 0 012.5 19a1.015 1.015 0 01-1.014-1.07l.261-4.848a.754.754 0 01.753-.714z" fill="#335EEA" opacity=".3"/></g></svg>
